images/ic_token_iaave.svg

<svg height="250" viewBox="0 0 250 250" width="250" xmlns="http://www.w3.org/2000/svg" xmlns:xlink="http://www.w3.org/1999/xlink"><linearGradient id="a" gradientUnits="userSpaceOnUse" x1="226.75003435286" x2="40.75000489" y1="56.75000681" y2="213.25002201857"><stop offset="0" stop-color="#b6509e"/><stop offset="1" stop-color="#2ebac6"/></linearGradient><path d="m125 250c69.035156 0 125-55.964844 125-125s-55.964844-125-125-125-125 55.964844-125 125 55.964844 125 125 125zm0 0" fill="url(#a)"/><path d="m178.730469 175.390625-41.457031-103.722656c-2.34375-5.363281-5.808594-7.988281-10.390626-7.988281h-3.667968c-4.582032 0-8.046875 2.625-10.390625 7.988281l-18.027344 45.1875h-13.652344c-1.964843.007812-3.847656.820312-5.238281 2.253906-1.394531 1.4375-2.183594 3.382813-2.195312 5.417969v.105468c.011718 2.035157.800781 3.980469 2.195312 5.417969 1.390625 1.4375 3.273438 2.246094 5.238281 2.253907h7.332031l-17.210937 43.085937c-.328125.945313-.5 1.941406-.511719 2.941406 0 2.417969.714844 4.3125 2.039063 5.78125 1.324219 1.472657 3.15625 2.207031 5.5 2.207031 1.539062-.023437 3.03125-.535156 4.277343-1.472656 1.324219-.945312 2.242188-2.3125 2.953126-3.886718l18.949218-48.65625h13.140625c1.964844-.007813 3.847657-.820313 5.238281-2.253907 1.394532-1.4375 2.183594-3.386719 2.195313-5.417969v-.210937c-.011719-2.035156-.800781-3.980469-2.195313-5.417969-1.390624-1.4375-3.273437-2.246094-5.238281-2.253906h-7.027343l14.460937-37.308594 39.421875 101.519532c.714844 1.574218 1.632812 2.941406 2.957031 3.886718 1.242188.9375 2.738281 1.453125 4.277344 1.472656 2.34375 0 4.175781-.734374 5.5-2.207031 1.324219-1.472656 2.039063-3.363281 2.039063-5.78125.035156-1.007812-.136719-2.011719-.511719-2.941406zm0 0" fill="#fff"/></svg>

<svg xmlns="http://www.w3.org/2000/svg" xmlns:xlink="http://www.w3.org/1999/xlink" width="250px" height="250px" viewBox="0 0 250 250" version="1.1">
<defs>
<linearGradient id="linear0" gradientUnits="userSpaceOnUse" x1="63.490002" y1="15.89" x2="11.41" y2="59.709999" gradientTransform="matrix(3.571429,0,0,3.571429,0,0)">
<stop offset="0" style="stop-color:rgb(71.372551%,31.37255%,61.960787%);stop-opacity:1;"/>
<stop offset="1" style="stop-color:rgb(18.039216%,72.941178%,77.64706%);stop-opacity:1;"/>
</linearGradient>
</defs>
<g id="surface1">
<path style=" stroke:none;fill-rule:nonzero;fill:url(#linear0);" d="M 125 250 C 194.035156 250 250 194.035156 250 125 C 250 55.964844 194.035156 0 125 0 C 55.964844 0 0 55.964844 0 125 C 0 194.035156 55.964844 250 125 250 Z M 125 250 "/>
<path style=" stroke:none;fill-rule:nonzero;fill:rgb(100%,100%,100%);fill-opacity:1;" d="M 178.730469 175.390625 L 137.273438 71.667969 C 134.929688 66.304688 131.464844 63.679688 126.882812 63.679688 L 123.214844 63.679688 C 118.632812 63.679688 115.167969 66.304688 112.824219 71.667969 L 94.796875 116.855469 L 81.144531 116.855469 C 79.179688 116.863281 77.296875 117.675781 75.90625 119.109375 C 74.511719 120.546875 73.722656 122.492188 73.710938 124.527344 L 73.710938 124.632812 C 73.722656 126.667969 74.511719 128.613281 75.90625 130.050781 C 77.296875 131.488281 79.179688 132.296875 81.144531 132.304688 L 88.476562 132.304688 L 71.265625 175.390625 C 70.9375 176.335938 70.765625 177.332031 70.753906 178.332031 C 70.753906 180.75 71.46875 182.644531 72.792969 184.113281 C 74.117188 185.585938 75.949219 186.320312 78.292969 186.320312 C 79.832031 186.296875 81.324219 185.785156 82.570312 184.847656 C 83.894531 183.902344 84.8125 182.535156 85.523438 180.960938 L 104.472656 132.304688 L 117.613281 132.304688 C 119.578125 132.296875 121.460938 131.484375 122.851562 130.050781 C 124.246094 128.613281 125.035156 126.664062 125.046875 124.632812 L 125.046875 124.421875 C 125.035156 122.386719 124.246094 120.441406 122.851562 119.003906 C 121.460938 117.566406 119.578125 116.757812 117.613281 116.75 L 110.585938 116.75 L 125.046875 79.441406 L 164.46875 180.960938 C 165.183594 182.535156 166.101562 183.902344 167.425781 184.847656 C 168.667969 185.785156 170.164062 186.300781 171.703125 186.320312 C 174.046875 186.320312 175.878906 185.585938 177.203125 184.113281 C 178.527344 182.640625 179.242188 180.75 179.242188 178.332031 C 179.277344 177.324219 179.105469 176.320312 178.730469 175.390625 Z M 178.730469 175.390625 "/>
</g>
</svg>
